X:830
T:Xiraldilla (CT 252)
R:Xiraldilla
C:Tradicional
S:Msica Tradicional Asturiana, (C) Tello & Tito. Asturies, 2001.
S:http://pagina.de/MusTradAst <telloytito@asturies.org>
N:Xiraldilla, dictada por Andrs Llabona Llabona, de veinticuatro aos, de Torazo, ayuntamiento de Cabranes.
A:Asturies
O:Torazo (Cabranes)
Z:Cancioneru de Torner 252
M:2/4
L:1/8
Q:1/4=160
K:G
|:d3c|BA Bc|d2 B2|c3B|Ac cB|(A2 G2):|
|:A2 AG|F2 FG|AB cB|A2 G2:|
W:L'ablanera come ablanes
W:y tamin come jamn;
W:los fos de l'ablanera
W:tomen leche pol tapn.
W:
W:Ai! remoln,
W:remoln y remolera,
W:Ai! remoln,
W:los fos de l'ablanera
W:
